X: 1
T: Farewell to East Buffalo Street
C: by David A Kaynor, 2015
R: waltz
%D:2015
B: David A. Kaynor "Living Music and Dance" 2021
Z: 2022 John Chambers <jc:trillian.mit.edu>
S: Dave Kaynors_Melodies_and_Harmonies.PDF
M: 3/4
L: 1/8
K: Gm
# = = = = = = = = = =
BA |\
"Gm"G4 G2 | GD GA B2 | GD GA B2 | GD GA B2 |
"Gm"G4 G2 | GD GA B2 | GD GA Bc | "Cm"c4 GB |
"Cm"cG cd e2 | cG cd e2 | "Gm"BG Bc d2 | BG Bc d2 |
"Cm"cG AB cd | "F"c3 d cA | "Cm"B2 G3 "Em"F | "Gm"G4 :|
|: GA |\
"Gm"BG Bd ga | bg ab ab | bg ab ab | bg ab ab |
"Gm"gd gb ab | bg ab ab | gd BG DB, | "Cm"C4 CD |
"Cm"EC EG EG | cG ce ce | "Gm"dG Bd Bd | dG Bd Bd |
"Cm"c3 G AB | "F"c3 d cA | "Gm"B2 G3 "F"F | "Gm"G4 :|
# = = = = = = = = = =
%%begintext align
%%endtext
